X: 170
T: No_92_War_Song.krn
%%abc-version 2.0
%%abcx-abcm2ps-target-version 5.9.1 (29 Sep 2008)
%%abc-creator hum2abc beta
%%abcx-conversion-date 2020/08/10 18:54:57
%%gracespace 0 6 6
%%humdrum-veritas 3280288802
%%humdrum-veritas-data 2585143068
%%linebreak <none>
%%barnumbers 0
L: 1/8
M: 2/4
%%staves {1 2}
V: 1 clef=bass
V: 2 clef=bass
K: Db
[V:1] [K:clef=bass][M:2/4]F<F F3/E/ | 
[V:2] [K:clef=bass][M:2/4](3!accent!G,, z G,, (3!accent!G,, z G,, | 
[V:1] F2E2 | 
[V:2] (3!accent!G,, z G,, (3!accent!G,, z G,, | 
[V:1] F<F E3/D/ | 
[V:2] z4 | 
[V:1] (3DB,-B, B,3/B,/ | 
[V:2] z4 | 
[V:1] B,3B, | 
[V:2] z4 | 
[V:1] B,4 | 
[V:2] z4 | 
[V:1] F<F F3/E/ | 
[V:2] z4 | 
[V:1] F2E2 | 
[V:2] z4 | 
[V:1] F<F E3/D/ | 
[V:2] z4 | 
[V:1] (3DB,-B, B,3/B,/ | 
[V:2] z4 | 
[V:1] B,3B, ||  
[V:2] z4 ||  
[V:1] [M:3/4]B,6 ||  
[V:2] [M:3/4]z6 ||  
[V:1] [M:2/4]D<D D3/D/ | 
[V:2] [M:2/4]z4 | 
[V:1] F2E2 | 
[V:2] z4 | 
[V:1] F<F E3/D/ | 
[V:2] z4 | 
[V:1] D2B,2 ||  
[V:2] z4 ||  
[V:1] [M:3/4]A,<A,- A,>B, B,3/B,/ ||  
[V:2] [M:3/4]z6 ||  
[V:1] [M:2/4]B,2A,2 | 
[V:2] [M:2/4]z4 | 
[V:1] B,<B, F,3/F,/ | 
[V:2] z4 | 
[V:1] F,2E,2- | 
[V:2] z4 | 
[V:1] E,F, E,D, | 
[V:2] z4 | 
[V:1] F,2E,2 | 
[V:2] z4 | 
[V:1] F,<F, D,3/D,/ | 
[V:2] z4 | 
[V:1] (3D,B,,B,,B,,2 | 
[V:2] z4 | 
[V:1] B,,3B,, | 
[V:2] z4 | 
[V:1] B,,4 |]  
[V:2] z4 |]  


